X: 10069
T: MILLSTONE'S  HORNPPE
C: Bob McQuillen 8 Nov 93
B: Bob's Note Book 10 #69
%R: hornpipe, reel
Z: 2020 John Chambers <jc:trillian.mit.edu>
M: C	% The booklet has no time signature.
L: 1/8
K: G
DE \
| G2GE DEGA | BAGF G2cB | A2AG EGAB | cedc BGBA |\
| G2GE DEGA | BAGB d2cB | AGFG ABcd | B2G2 G2  :|
|: Bc \
| d2dc BGBc | d2gf gdBG | FGAB cded | cBAG A2Bc |\
| d2dc BGBc | d2gf gdBG | FAGE DFAc | B2G2 G2  :|
%%begintext align
%% Dave Millstone
%% is a fine caller who lives up in West Lebanon, NH, and
%% we've had a happy relationship for years, first with New
%% England Tradition, and now with Old New England. We
%% like the way you operate, Dave, and look forward to
%% our next gig together (which I personally hope is a bit _hotter_
%% than that last one!) Best wishes always to you, Dave --
%%endtext

%%sep 1 1 500

%%sep 1 1 500

